X:1
T:Key West, CMD
T:Key West, CMD
T:Elizabeth Manford Clark, 1879
T:Public Domain Courtesy of the Cyber Hymnal™
C:Elizabeth Manford Clark, 1879
Z:Public Domain
Z:Courtesy of the Cyber Hymnal™
%%score ( 1 2 ) ( 3 4 )
L:1/8
Q:1/4=110
M:4/4
K:F
V:1 treble 
V:2 treble 
V:3 bass 
V:4 bass 
V:1
 C2 | [CF]2 [FA]2 [Fc]2 [Bd]2 | ([Ac][FA]) ([CF][EG]) [FA]2 [CF]2 | [EG]2 [EG]2 F2 [EG]2 | %4
 [FA]6 C2 | [CF]2 [FA]2 [Fc]2 [Bd]2 | ([Ac][FA]) ([CF][EG]) [FA]2 [CF]2 | D2 [DG]2 [CF]2 [CE]2 | %8
 [CF]6 ([EG][FA]) | [GB]2 [GB]2 [FA]2 [EG]2 | [CF]2 [FA]2 [Fc]2 [Fc]2 | [Fd]2 [Fc]2 ([FA][EG]) F2 | %12
 [EG]6 ([FA][CG]) | [CF]2 [FA]2 [Fc]2 [Fd]2 | ([Ac][FA]) ([CF][EG]) [FA]2 [FB]2 | %15
 [FA]2 [DG]2 [CF]2 [CE]2 | [CF]6 |] %17
V:2
 C2 | x8 | x8 | x4 F2 x2 | x6 C2 | x8 | x8 | D2 x6 | x8 | x8 | x8 | x6 F2 | x8 | x8 | x8 | x8 | %16
 x6 |] %17
V:3
 [F,A,]2 | [F,A,]2 [F,C]2 [F,A,]2 [F,F]2 | (FC) (A,B,) [F,C]2 [A,C]2 | C2 [B,C]2 [A,C]2 [G,C]2 | %4
 [F,C]6 [F,A,]2 | [F,A,]2 [F,C]2 [F,A,]2 [F,F]2 | (FC) (A,B,) [F,C]2 [A,,C]2 | %7
 [B,,B,]2 [B,,B,]2 [C,A,]2 [C,G,]2 | [F,A,]6 [C,C]2 | [E,C]2 [C,C]2 [F,C]2 (CB,) | %10
 [F,A,]2 [F,C]2 [F,A,]2 [F,A,]2 | [F,B,]2 [F,A,]2 (CB,) [F,A,]2 | [C,C]6 (CB,) | %13
 [F,A,]2 [F,C]2 [F,A,]2 [F,B,]2 | (FC) (A,B,) [F,C]2 [F,D]2 | [F,C]2 [B,,B,]2 [C,A,]2 [C,G,]2 | %16
 [F,A,]6 |] %17
V:4
 x2 | x8 | F,2 F,2 x4 | C2 x6 | x8 | x8 | F,2 F,2 x4 | x8 | x8 | x6 C,2 | x8 | x4 F,2 x2 | x6 C,2 | %13
 x8 | F,2 F,2 x4 | x8 | x6 |] %17

